X:92
T:Sion ab Ifan
M:2/4
L:1/8
Q:220
S:Cadw Twmpath Collection
R:Polka
A:Wales
Z:brian_martin12345@yahoo.com
K:D
A|d>>c d>>c|d/e/f/g/ ag/f/|e>>f ed|ce a>>A|!
d>>c d>>c|d/e/f/g/ ag/f/|e3/2f/4g/4 fe|"   Fine"d3:||!
z|AB/c/ dB|e>d cA|d>A FA|d/e/f/g/ a>>g|!
f>g fe|def2|a/g/f/e/ dc|"   D.C."B3||
